X:190
T: Haensje klein geht allein
N: D1021
O: Europa, Mitteleuropa, Deutschland, Ottweiler, Welschbach
N: DVA-Signatur A 126 662
R: Kinder -, Scherz -, Neck - Lied
M: 2/4
L: 1/16
K: D
A2F2F4 | G2E2E4 |
D2E2F2GG | A2A2A2z2 |
A2FFF2zF | G2EEE2z2 |
D2E2F2G2 | A2A2A2z2 |
F2F2F2F2 | B2A2A2z2 |
F2F2F2F2 | F2A2A2z2 |
F2F2F2F2 | B2F2F2z2

@@@ Tune index: 2712
